X: 371
T: Banchory Fiddlers
C: Bert Murray
R: strathspey
B: Bert Murray's "Bon Accord Collection" 1999 p.37
%
Z: 2011 John Chambers <jc:trillian.mit.edu>
M: C
L: 1/16
K: A
uc2 |\
[A2A4]A,2 A3B c3Ac3e | (fga2) (.e3.c) (dB3) (.B3c.) |\
[A2A4]A,2 A3B c3Ac3e | (fga2) (.e3.d) (cA3) (.A3c.) |
[A2A4]A,2 A3B c3Ac3e | (fga2) (.e3.c) (dB3) (.B3e.) |\
a3ec3e f3ae3a | (fga2) (.e3.a) (cA3) [A2A2] ||
ue2 |\
a3ec3A d3fB3f | a3ec3e fB3 B3e | a3ec3A (def2) (.B3.g) | a3fe3d cA3 A3e |
a3ec3A d3fB3g | agf2 edc2 dB3 B3e | a3ec3e f2a2e2a2 | (fga2) (.e3.a) (cA3) [A2A2] |]
